!!!COM: Buxtehude, Dietrich
!!!CDT: ~1637///-1707/05/09/
!!!ODT: ~1694///
!!!OTL: Sonata in G Major, Op. 1, No. 2
!!!OPS: Op. 1
!!!ONM: No. 2
!!!SCA: BuxWV 253
!!!OMD: 3. Adagio
!!!URL: http://www.lysator.liu.se/~tuben/scores
!!!ONB: Johan Tufvessons, ed.
!!!SMA: facsmile of the original edition at Uppsala University
**kern	**kern	**kern
*staff3	*staff2	*staff1
*Icemba	*Iviola	*Ivioln
*clefF4	*clefC3	*clefG2
*k[f#]	*k[f#]	*k[f#]
*met(C)	*met(C)	*met(C)
*M4/4	*M4/4	*M4/4
*MM72	*MM72	*MM72
=71-	=71-	=71-
2r	2r	2r
2G\	2g\	[2b\
=72	=72	=72
1c	1e	2b\]
.	.	2a/
=73	=73	=73
1B	1d#;	1b;
=74	=74	=74
2r	2r	2r
2D#\	[2f#\	[2a/
=75	=75	=75
1E	4f#\]	4a/]
.	4B/	4g/
.	2e;\	2g/
=76	=76	=76
2GG/	4r	2r
.	2e\	.
2GG#/	.	[2b\
.	4d\	.
=77	=77	=77
2AA/	4c#\	4b\]
.	4cn\	8e/L
.	.	8a/J
2BB/	4r	4.g/
.	[4B/	.
.	.	8f#/
=78	=78	=78
1C	4B/]	4e/
.	8A/L	8f#/L
.	8G/J	8g/J
.	2A/	4.f#/
.	.	8e/
=79	=79	=79
1BB;	1B;	1d#;
==	==	==
*-	*-	*-
!!!ENC: Craig Stuart Sapp
!!!END: 2004/12/15/
